src/icons/body.svg

<svg xmlns="http://www.w3.org/2000/svg" xml:space="preserve" style="fill-rule:evenodd;clip-rule:evenodd;stroke-linejoin:round;stroke-miterlimit:2" viewBox="0 0 512 241"><path d="M392 286c-16.542 0-30 13.458-30 30s13.458 30 30 30 30-13.458 30-30-13.458-30-30-30m0 45c-8.271 0-15-6.729-15-15s6.729-15 15-15 15 6.729 15 15-6.729 15-15 15M120 346c16.542 0 30-13.458 30-30s-13.458-30-30-30-30 13.458-30 30 13.458 30 30 30m0-45c8.271 0 15 6.729 15 15s-6.729 15-15 15-15-6.729-15-15 6.729-15 15-15" style="fill-rule:nonzero" transform="translate(0 -135.999)"/><path d="m492 300.924-140.34-74.058a7.5 7.5 0 0 0-3.5-.867H263.5v-22.5c0-4.136 3.364-7.5 7.5-7.5a7.5 7.5 0 0 0 7.5-7.5v-45a7.5 7.5 0 0 0-7.5-7.5h-37.355a37.4 37.4 0 0 0-28.862 13.557l-77.667 93.62C124.522 225.012 108.87 211 90 211H7.5a7.5 7.5 0 0 0-7.5 7.5v75a7.5 7.5 0 0 0 7.5 7.5h54.399A60 60 0 0 0 60 316c0 33.084 26.916 60 60 60s60-26.916 60-60c0-17.908-7.896-33.997-20.377-45h192.754C339.896 282.003 332 298.092 332 316a59.6 59.6 0 0 0 8.072 30H193.474a7.5 7.5 0 0 0 0 15h158.903c10.578 9.325 24.446 15 39.623 15s29.045-5.675 39.623-15H504.5a7.5 7.5 0 0 0 7.5-7.5v-19.409a37.41 37.41 0 0 0-20-33.167M374.728 256H135.967l12.444-15h197.892zm-158.401-96.866A22.44 22.44 0 0 1 233.644 151H263.5v31.285c-8.73 3.095-15 11.437-15 21.215V226h-87.645zM15 286v-60h75c12.407 0 22.5 10.093 22.5 22.5v7.985c-18.983 2.38-35.229 13.654-44.428 29.515zm150 30c0 24.813-20.187 45-45 45s-45-20.187-45-45 20.187-45 45-45 45 20.187 45 45m227 45c-24.813 0-45-20.187-45-45s20.187-45 45-45 45 20.187 45 45-20.187 45-45 45m105-15h-53.072A59.6 59.6 0 0 0 452 316a59.7 59.7 0 0 0-3.916-21.29L485 314.191a22.45 22.45 0 0 1 12 19.9z" style="fill-rule:nonzero" transform="translate(0 -135.999)"/><path d="M256 316h-53.5a7.5 7.5 0 0 0 0 15H256a7.5 7.5 0 0 0 7.5-7.5 7.5 7.5 0 0 0-7.5-7.5M256 286h-56.619a7.5 7.5 0 0 0 0 15H256a7.5 7.5 0 0 0 7.5-7.5 7.5 7.5 0 0 0-7.5-7.5" style="fill-rule:nonzero" transform="translate(0 -135.999)"/></svg>

<?xml version="1.0" encoding="UTF-8" standalone="no"?>
<!DOCTYPE svg PUBLIC "-//W3C//DTD SVG 1.1//EN" "http://www.w3.org/Graphics/SVG/1.1/DTD/svg11.dtd">
<svg width="100%" height="100%" viewBox="0 0 512 241" version="1.1" xmlns="http://www.w3.org/2000/svg" xmlns:xlink="http://www.w3.org/1999/xlink" xml:space="preserve" style="fill-rule:evenodd;clip-rule:evenodd;stroke-linejoin:round;stroke-miterlimit:2;">
    <g transform="matrix(1,0,0,1,-1.42109e-14,-135.999)">
        <g>
            <path d="M392,286C375.458,286 362,299.458 362,316C362,332.542 375.458,346 392,346C408.542,346 422,332.542 422,316C422,299.458 408.542,286 392,286ZM392,331C383.729,331 377,324.271 377,316C377,307.729 383.729,301 392,301C400.271,301 407,307.729 407,316C407,324.271 400.271,331 392,331Z" style="fill-rule:nonzero;"/>
            <path d="M120,346C136.542,346 150,332.542 150,316C150,299.458 136.542,286 120,286C103.458,286 90,299.458 90,316C90,332.542 103.458,346 120,346ZM120,301C128.271,301 135,307.729 135,316C135,324.271 128.271,331 120,331C111.729,331 105,324.271 105,316C105,307.729 111.729,301 120,301Z" style="fill-rule:nonzero;"/>
            <path d="M492,300.924L351.66,226.866C350.581,226.297 349.38,225.999 348.16,225.999L263.5,225.999L263.5,203.499C263.5,199.363 266.864,195.999 271,195.999C275.143,195.999 278.5,192.641 278.5,188.499L278.5,143.499C278.5,139.357 275.143,135.999 271,135.999L233.645,135.999C222.451,135.999 211.931,140.94 204.783,149.556L127.116,243.176C124.522,225.012 108.87,211 90,211L7.5,211C3.358,211 0,214.358 0,218.5L0,293.5C0,297.642 3.358,301 7.5,301L61.899,301C60.66,305.796 60,310.822 60,316C60,349.084 86.916,376 120,376C153.084,376 180,349.084 180,316C180,298.092 172.104,282.003 159.623,271L352.377,271C339.896,282.003 332,298.092 332,316C332,326.925 334.949,337.167 340.072,346L193.474,346C189.332,346 185.974,349.358 185.974,353.5C185.974,357.642 189.332,361 193.474,361L352.377,361C362.955,370.325 376.823,376 392,376C407.177,376 421.045,370.325 431.623,361L504.5,361C508.643,361 512,357.642 512,353.5L512,334.091C512,320.143 504.337,307.434 492,300.924ZM374.728,256L135.967,256L148.411,241L346.303,241L374.728,256ZM216.327,159.134C220.616,153.965 226.928,151 233.644,151L263.5,151L263.5,182.285C254.77,185.38 248.5,193.722 248.5,203.5L248.5,226L160.855,226L216.327,159.134ZM15,286L15,226L90,226C102.407,226 112.5,236.093 112.5,248.5L112.5,256.485C93.517,258.865 77.271,270.139 68.072,286L15,286ZM165,316C165,340.813 144.813,361 120,361C95.187,361 75,340.813 75,316C75,291.187 95.187,271 120,271C144.813,271 165,291.187 165,316ZM392,361C367.187,361 347,340.813 347,316C347,291.187 367.187,271 392,271C416.813,271 437,291.187 437,316C437,340.813 416.813,361 392,361ZM497,346L443.928,346C449.051,337.167 452,326.925 452,316C452,308.504 450.606,301.332 448.084,294.71L485,314.191C492.401,318.097 497,325.722 497,334.091L497,346Z" style="fill-rule:nonzero;"/>
            <path d="M256,316L202.5,316C198.358,316 195,319.358 195,323.5C195,327.642 198.358,331 202.5,331L256,331C260.143,331 263.5,327.642 263.5,323.5C263.5,319.358 260.143,316 256,316Z" style="fill-rule:nonzero;"/>
            <path d="M256,286L199.381,286C195.239,286 191.881,289.358 191.881,293.5C191.881,297.642 195.239,301 199.381,301L256,301C260.143,301 263.5,297.642 263.5,293.5C263.5,289.358 260.143,286 256,286Z" style="fill-rule:nonzero;"/>
        </g>
    </g>
</svg>
